!!!!SEGMENT: pl-stab--11a--006_rodowski-aleksander--litania-de-b-m-v-christe-audi-nos.krn
!!!cenid: 18xx:3403
!!!COM: Rodowski, Aleksander
!!!COM-rismID: pe30009627
!!!CDT: <1790->1810
!!!CNT: Polish
!!!OPR: Litania de B.M.V
!!!OTL: Christe audi nos
!!!OMV: 006
!!!PDT: 1801
!!!AGN:
!!!SMS-siglum: PL-STAb
!!!SMS-shelfmark: 11a
!!!SMS-shelfwork: M
!!!SMS-variant: Baſso PL-STAb 11a s:18-20 ; Canto PL-STAb 11a s:3-5
!!!SMS-altvar: Basſo PL-STAb 11a:21-23 ; Canto PL-STAb 11a:7-11 ; Canto PL-STAb 11a:6-7
!!!NIFC-rismSourceID: 301050677
!!!NIFC-islandoraID: pl-stab:2413
!!!URL-pdf-islandora: https://repozytorium.nifc.pl/islandora/object/pl-stab%3A2413/datastream/PDF/view
!!!URL-scan: https://polish.musicsources.pl/pl/lokalizacje/galeria/rekopisy/4403 @EN{Scan on Polish Music Sources Website} @PL{Skany w portalu Dziedzictwo Muzyki Polskiej w otwartym dostępie}
!!!ONB-nifc: UWAGA: części Litanii: 1. Introdukcia, 2. Kyrie, 3. Rosa mistica, 4. Regina angelorum, 5. Agnus Dei, 6. Christe audi nos
!!!AIN: 1 alto 1 bass 2 cor 1 organ 1 soprn 1 tenor 2 violn
!!!key: D
**kern	**fba	**kern	**kern	**kern	**text	**kern	**text	**kern	**text	**kern	**text	**kern	**kern
*part9	*part9	*part8	*part7	*part6	*part6	*part5	*part5	*part4	*part4	*part3	*part3	*part2	*part1
*staff9	*	*staff8	*staff7	*staff6	*staff6	*staff5	*staff5	*staff4	*staff4	*staff3	*staff3	*staff2	*staff1
*IGcont	*	*	*	*IGcoro	*	*IGcoro	*	*IGcoro	*	*IGcoro	*	*	*
*ICklav	*	*ICstr	*ICstr	*ICvox	*	*ICvox	*	*ICvox	*	*ICvox	*	*ICbrass	*ICbrass
*Iorgan	*	*Ivioln	*Ivioln	*Ibass	*	*Itenor	*	*Ialto	*	*Isoprn	*	*Icor	*Icor
*I"Organo	*	*I"Violino 2do	*I"Violino Primo	*I"Basso	*	*I"Tenore	*	*I"Alto	*	*I"Canto	*	*I"Cornu Secundo	*I"Cornu Primo
*I'org	*	*I'vl 2	*I'vl 1	*I'B	*	*I'T	*	*I'A	*	*I'S	*	*I'cor 2 in D	*I'cor 1 in D
*clefC1	*	*clefG2	*clefG2	*clefF4	*	*clefC4	*	*clefC3	*	*clefC1	*	*clefG2	*clefG2
*	*	*	*	*	*	*	*	*	*	*	*	*ITrd-1c-2	*ITrd-1c-2
*k[f#c#]	*	*k[f#c#]	*k[f#c#]	*k[f#c#]	*	*k[c#f#]	*	*k[f#c#]	*	*k[f#c#]	*	*k[f#c#]	*k[f#c#]
*D:	*	*D:	*D:	*D:	*	*D:	*	*D:	*	*D:	*	*D:	*D:
*M2/2	*	*M2/2	*M2/2	*M2/2	*	*M2/2	*	*M2/2	*	*M2/2	*	*M2/2	*M2/2
*met(c|)	*	*met(c|)	*met(c|)	*met(c|)	*	*met(c|)	*	*met(c|)	*	*met(c|)	*	*met(c|)	*met(c|)
*2\right	*	*2\right	*2\right	*2\right	*	*2\right	*	*2\right	*	*2\right	*	*2\right	*2\right
=1	=1	=1	=1	=1	=1	=1	=1	=1	=1	=1	=1	=1	=1
!LO:TX:a:t=Allo:rj	!	!LO:TX:a:t=8	!LO:TX:a:t=8	!LO:TX:a:t=allo	!	!LO:TX:a:t=4	!	!LO:TX:a:t=8	!	!LO:TX:a:t=allegro:rj	!	!LO:TX:a:t=10	!LO:TX:a:t=10
4dd\	.	00r	00r	00r	.	00r	.	00r	.	4dd\	Chri-	00r	00r
4dd\	.	.	.	.	.	.	.	.	.	4dd\	-ste	.	.
*	*	*	*	*	*	*	*	*	*	*	*ij	*	*
4ee\	.	.	.	.	.	.	.	.	.	4ee\	Chri-	.	.
4ff#\	.	.	.	.	.	.	.	.	.	4ff#\	-ste	.	.
*	*	*	*	*	*	*	*	*	*	*	*Xij	*	*
=2	=2	=2	=2	=2	=2	=2	=2	=2	=2	=2	=2	=2	=2
4gg\	.	.	.	.	.	.	.	.	.	4gg\	au-	.	.
4aa\	.	.	.	.	.	.	.	.	.	4aa\	-di	.	.
2bb\	.	.	.	.	.	.	.	.	.	2bb\	nos	.	.
=3	=3	=3	=3	=3	=3	=3	=3	=3	=3	=3	=3	=3	=3
2ee\	.	.	.	.	.	.	.	.	.	2ee\	Chri-	.	.
4aa\	.	.	.	.	.	.	.	.	.	4aa\	-ste	.	.
4gg\	.	.	.	.	.	.	.	.	.	4gg\	ex	.	.
=4	=4	=4	=4	=4	=4	=4	=4	=4	=4	=4	=4	=4	=4
4ff#\	.	.	.	.	.	.	.	.	.	4ff#\	au-	.	.
4ee\	.	.	.	.	.	.	.	.	.	4ee\	-di	.	.
2dd\	.	.	.	.	.	.	.	.	.	2dd\	nos	.	.
=5	=5	=5	=5	=5	=5	=5	=5	=5	=5	=5	=5	=5	=5
*^	*	*	*	*	*	*	*	*	*	*	*	*	*
*clefC4	*	*	*	*	*	*	*	*	*	*	*	*	*	*
4A/	4ryy	.	00r	00r	00r	.	4A\	Chri-	00r	.	4cc#\	Chri-	00r	00r
4A/	4ryy	.	.	.	.	.	4A\	-ste	.	.	4cc#\	-ste	.	.
*	*	*	*	*	*	*	*	*ij	*	*	*	*ij	*	*
4B/	4G#X\	.	.	.	.	.	4B\	Chri-	.	.	4g#X\	Chri-	.	.
4c#/	4A\	.	.	.	.	.	4c#\	-ste	.	.	4a\	-ste	.	.
*	*	*	*	*	*	*	*	*Xij	*	*	*	*Xij	*	*
=6	=6	=6	=6	=6	=6	=6	=6	=6	=6	=6	=6	=6	=6	=6
!	!	!	!	!	!	!	!	!	!	!	!LO:LB:g=original	!	!	!
4d/	4B\	.	.	.	.	.	4d\	au-	.	.	4b\	au-	.	.
4e/	4c#\	.	.	.	.	.	4e\	-di	.	.	4cc#\	-di	.	.
2f#/	2d\	.	.	.	.	.	2f#\	nos	.	.	2dd\	nos	.	.
=7	=7	=7	=7	=7	=7	=7	=7	=7	=7	=7	=7	=7	=7	=7
!LO:LB:g=original	!	!	!	!	!	!	!LO:LB:g=original	!	!	!	!	!	!	!
2B/	4r	.	.	.	.	.	2B\	Chri-	.	.	4g#X\	Chri-	.	.
.	4E\	.	.	.	.	.	.	.	.	.	4e\	.	.	.
4e/	4F#\	.	.	.	.	.	4e\	-ste	.	.	4f#\	-ste	.	.
4d/	4G#X\	.	.	.	.	.	4d\	ex-	.	.	4g#\	ex	.	.
=8	=8	=8	=8	=8	=8	=8	=8	=8	=8	=8	=8	=8	=8	=8
4c#/	4A\	.	.	.	.	.	4c#\	-au-	.	.	4a/	au-	.	.
4B/	4E\	.	.	.	.	.	4B\	-di	.	.	4e/	-di	.	.
2A/	2C#\	.	.	.	.	.	2A\	nos	.	.	2c#/	nos	.	.
*v	*v	*	*	*	*	*	*	*	*	*	*	*	*	*
=9	=9	=9	=9	=9	=9	=9	=9	=9	=9	=9	=9	=9	=9
*clefF4	*	*	*	*	*	*	*	*	*	*	*	*	*
!	!	!	!	!	!	!LO:TX:a:t=2	!	!	!	!	!	!	!
4D/	.	4d/	4dd\	0r	.	0r	.	4d\	Chri-	4dd\	Chri-	0r	0r
4d\	.	4dd\	4dd\	.	.	.	.	4dd\	-ste	4dd\	-ste	.	.
*	*	*	*	*	*	*	*	*	*ij	*	*ij	*	*
4c#\	x x 3	4cc#X\	4ee\	.	.	.	.	4cc#X\	Chri-	4ee\	Chri-	.	.
4cn\	x x 4	4ccn\	4ff#\	.	.	.	.	4ccn\	-ste	4ff#\	-ste	.	.
*	*	*	*	*	*	*	*	*	*Xij	*	*Xij	*	*
=10	=10	=10	=10	=10	=10	=10	=10	=10	=10	=10	=10	=10	=10
4B\	x x 6	4b\	4gg\	.	.	.	.	4b\	au-	4gg\	au-	.	.
4F#\	x x 3	4f#\	4aa\	.	.	.	.	4f#\	-di	4aa\	-di	.	.
2G\	x x 3	4g\	2bb\	.	.	.	.	2g\	nos	2bb\	nos	.	.
.	.	4e\	.	.	.	.	.	.	.	.	.	.	.
=11	=11	=11	=11	=11	=11	=11	=11	=11	=11	=11	=11	=11	=11
4AA/	x 6 4	2a/	2a/ 2ff#	4r	.	4r	.	4r	.	4r	.	1ee	1gg
4A\	.	.	.	4A\	Chri-	4e\	Chri-	4cc#X\	Chri-	4gg\	Chri-	.	.
.	.	.	16qqaa/	.	.	.	.	.	.	.	.	.	.
4A\	.	8b/L	8gg\L	4A\	-ste	4e\	-ste	4cc#\	-ste	4gg\	-(ste)	.	.
.	.	8a/	8ff#\	.	.	.	.	.	.	.	.	.	.
!	!	!	!	!	!	!	!	!	!	!LO:LB:g=original	!	!	!
4A\	.	8b/	8gg\	4A\	e-	4e\	e-	4cc#\	e-	4gg\	ex	.	.
.	.	8g/J	8ee\J	.	.	.	.	.	.	.	.	.	.
=12	=12	=12	=12	=12	=12	=12	=12	=12	=12	=12	=12	=12	=12
!	!	!LO:LB:g=original	!	!	!	!	!	!	!	!	!	!	!
4AA/	7 5 3	4e/	4cc#\	2A\	-xau-	2c#\	-xau-	2cc#\	-xau-	2ee\	au-	1a	1ee
4A\	.	4a/	4a\	.	.	.	.	.	.	.	.	.	.
4A\	.	4g#X/	4b\	2A\	-di	2c#\	-di	2cc#\	-di	2ee\	-di	.	.
4A\	.	4gn/	4cc#\	.	.	.	.	.	.	.	.	.	.
=13	=13	=13	=13	=13	=13	=13	=13	=13	=13	=13	=13	=13	=13
!	!	!	!LO:LB:g=original	!	!	!	!	!	!	!	!	!	!
4D\	.	4f#/	4dd\	4D\	nos	4d\	nos	4dd\	nos	4ff#\	nos	2f#/	2dd\
4d\	.	4dd\	4dd\	4r	.	4r	.	4dd\	Chri-	4dd\	Chri-	.	.
4c#\	x x 3	4cc#\	4ee\	2r	.	2r	.	4cc#X\	-ste	(4ee\	-ste	2r	2r
4cn\	x x 4	4ccn\	4ff#\	.	.	.	.	4ccn\	e-	4ff#\)	.	.	.
=14	=14	=14	=14	=14	=14	=14	=14	=14	=14	=14	=14	=14	=14
!	!	!	!	!	!	!LO:TX:a:t=1	!	!	!	!	!	!LO:TX:a:t=1	!LO:TX:a:t=1
4B\	x x 6	4b\	4gg\	1r	.	1r	.	4b\	-xau-	4gg\	au-	1r	1r
4F#\	x x 3	4f#/	4aa\	.	.	.	.	4f#\	-di	4aa\	-di	.	.
2G\	x x 3	4g/	2bb\	.	.	.	.	2g\	nos	2bb\	nos	.	.
.	.	4e/	.	.	.	.	.	.	.	.	.	.	.
=15	=15	=15	=15	=15	=15	=15	=15	=15	=15	=15	=15	=15	=15
!LO:LB:g=original	!	!	!	!	!	!	!	!	!	!	!	!	!
4AA/	x 6 4	4d/ 4f#	2a/ 2ff#	4r	.	4r	.	4r	.	4r	.	1ee	1gg
4A\	.	4d/ 4f#	.	4A\	Chri-	4e\	Chri-	4cc#X\	Chri-	4gg\	Chri-	.	.
4A\	.	4d/ 4f#	8aa\L	4A\	-ste	4e\	-ste	4cc#\	-ste	4gg\	-ste	.	.
.	.	.	8gg\	.	.	.	.	.	.	.	.	.	.
4A\	.	4d/ 4f#	8ff#\	4A\	e-	4e\	e-	4cc#\	e-	4gg\	ex	.	.
.	.	.	8gg\J	.	.	.	.	.	.	.	.	.	.
=16	=16	=16	=16	=16	=16	=16	=16	=16	=16	=16	=16	=16	=16
!	!	!	!	!LO:LB:g=original	!	!LO:LB:g=original	!	!LO:LB:g=original	!	!	!	!	!
4AA/	7 5 3	4g/	4ee\	2A\	-xau-	2c#\	-xau-	2cc#\	-xau-	2ee\	au-	1a	1ee
4A\	.	4f#/	4aa\	.	.	.	.	.	.	.	.	.	.
4A\	.	4g/	4bb\	2A\	-di	2c#\	-di	2cc#\	-di	2ee\	-di	.	.
4A\	.	4e/	4ccc#\	.	.	.	.	.	.	.	.	.	.
=17	=17	=17	=17	=17	=17	=17	=17	=17	=17	=17	=17	=17	=17
*	*	*	*tremolo	*	*	*	*	*	*	*	*	*	*
!	!	!	!	!	!	!	!	!	!	!LO:LB:g=original	!	!	!
4D\|	.	4d/	8ff#\L 8ddd	4D\	nos	4d\	nos	4dd\	nos	4ff#\	nos	4f#/	4dd\
.	.	.	8ff#\ 8ddd	.	.	.	.	.	.	.	.	.	.
4D\|	.	4d/	8ff#\ 8ddd	4D\	Chri-	4d\	chri-	4d\	Chri-	4ff#\	Chri-	4r	4r
.	.	.	8ff#\J 8ddd	.	.	.	.	.	.	.	.	.	.
4E\|	.	4e/	8ff#\L 8ddd	4E\	-ste	4d\	-ste	4e\	-ste	4ff#\	-ste	2r	2r
.	.	.	8ff#\ 8ddd	.	.	.	.	.	.	.	.	.	.
4F#\|	.	4f#/	8ff#\ 8ddd	4F#\	e-	4d\	e-	4f#\	e-	4ff#\	ex	.	.
.	.	.	8ff#\J 8ddd	.	.	.	.	.	.	.	.	.	.
=18	=18	=18	=18	=18	=18	=18	=18	=18	=18	=18	=18	=18	=18
!	!	!	!	!	!	!	!	!	!	!	!	!	!LO:TX:a:t=1
4G\|	.	4g/	8ff#\L 8ddd	4G\	-xau-	4d\	-xau-	4g\	-xau-	4ff#\	au-	1r	1r
.	.	.	8ff#\ 8ddd	.	.	.	.	.	.	.	.	.	.
4A\|	.	4a/	8ff#\ 8ddd	4A\	-di	4d\	-di	4a\	-di	4ff#\	-di	.	.
.	.	.	8ff#\J 8ddd	.	.	.	.	.	.	.	.	.	.
2B\|	.	2b/	8ff#\L 8ddd	2B\	nos	2d\	nos	2b\	nos	2ff#\	nos	.	.
.	.	.	8ff#\ 8ddd	.	.	.	.	.	.	.	.	.	.
.	.	.	8ff#\ 8ddd	.	.	.	.	.	.	.	.	.	.
.	.	.	8ff#\J 8ddd	.	.	.	.	.	.	.	.	.	.
=19	=19	=19	=19	=19	=19	=19	=19	=19	=19	=19	=19	=19	=19
!	!	!	!	!	!	!	!	!	!	!	!	!	!LO:LB:g=original
2G\|	.	2f#/	8ee\L 8ddd	2G\	Chri-	2e\	Chri-	2b\	Chri-	2gg\	Chri-	1ee	1gg
.	.	.	8ee\ 8ddd	.	.	.	.	.	.	.	.	.	.
.	.	.	8ee\ 8ddd	.	.	.	.	.	.	.	.	.	.
.	.	.	8ee\J 8ddd	.	.	.	.	.	.	.	.	.	.
2E\|	.	8g/L	8ee\L 8ddd	4E\	-ste	4e\	-ste	2g\	-ste	4gg\	-ste	.	.
.	.	8f#/	8ee\ 8ddd	.	.	.	.	.	.	.	.	.	.
.	.	8g/	8ee\ 8ddd	4D\	e-	4e\	e-	.	.	4gg\	ex	.	.
.	.	8e/J	8ee\J 8ddd	.	.	.	.	.	.	.	.	.	.
=20	=20	=20	=20	=20	=20	=20	=20	=20	=20	=20	=20	=20	=20
!	!	!LO:LB:g=original	!	!	!	!	!	!	!	!	!	!LO:LB:g=original	!
2A\|	.	4c#/	8ee\L 8ccc#	2A\	-xau-	2c#\	-xau-	2a\	au-	2ee\	au-	1a	1ee
.	.	.	8ee\ 8ccc#	.	.	.	.	.	.	.	.	.	.
.	.	4A/	8ee\ 8ccc#	.	.	.	.	.	.	.	.	.	.
.	.	.	8ee\J 8ccc#	.	.	.	.	.	.	.	.	.	.
2AA/|>	.	4B/	8ee\L 8ccc#	2AA/	-di	2c#\	-di	2A/	-di	2ee\	-di	.	.
.	.	.	8ee\ 8ccc#	.	.	.	.	.	.	.	.	.	.
.	.	4c#/	8ee\ 8ccc#	.	.	.	.	.	.	.	.	.	.
.	.	.	8ee\J 8ccc#	.	.	.	.	.	.	.	.	.	.
=21	=21	=21	=21	=21	=21	=21	=21	=21	=21	=21	=21	=21	=21
4D\|	.	4d/	8ff#\L 8ddd	4D\	nos	4d\	nos	4d\	nos	4ff#\	nos	4f#/	4dd\
.	.	.	8ff#\ 8ddd	.	.	.	.	.	.	.	.	.	.
4D\|	.	4d/	8ff#\ 8ddd	4D\	Chri-	4d\	chri-	4d\	Chri-	4ff#\	Chri-	4r	4r
.	.	.	8ff#\J 8ddd	.	.	.	.	.	.	.	.	.	.
4E\|	.	4e/	8ff#\L 8ddd	4E\	-ste	4d\	-ste	4e\	-ste	4ff#\	-ste	2r	2r
.	.	.	8ff#\ 8ddd	.	.	.	.	.	.	.	.	.	.
4F#\|	.	4f#/	8ff#\ 8ddd	4F#\	e-	4d\	e-	4f#\	e-	4ff#\	ex	.	.
.	.	.	8ff#\J 8ddd	.	.	.	.	.	.	.	.	.	.
=22	=22	=22	=22	=22	=22	=22	=22	=22	=22	=22	=22	=22	=22
!	!	!	!LO:LB:g=original	!LO:LB:g=original	!	!LO:LB:g=original	!	!	!	!LO:LB:g=original	!	!LO:TX:a:t=1	!LO:TX:a:t=1
4G\|	.	4g/	8ff#\L 8ddd	4G\	-xau-	4d\	-xau-	4g\	-xau-	4ff#\	au-	1r	1r
.	.	.	8ff#\ 8ddd	.	.	.	.	.	.	.	.	.	.
4A\|	.	4a/	8ff#\ 8ddd	4A\	-di	4d\	-di	4a\	-di	4ff#\	-di	.	.
.	.	.	8ff#\J 8ddd	.	.	.	.	.	.	.	.	.	.
2B\|	.	2b/	8ff#\L 8ddd	2B\	nos	2d\	nos	2b\	nos	2ff#\	nos	.	.
.	.	.	8ff#\ 8ddd	.	.	.	.	.	.	.	.	.	.
.	.	.	8ff#\ 8ddd	.	.	.	.	.	.	.	.	.	.
.	.	.	8ff#\J 8ddd	.	.	.	.	.	.	.	.	.	.
=23	=23	=23	=23	=23	=23	=23	=23	=23	=23	=23	=23	=23	=23
2G\|	.	2f#/	8ee\L 8ddd	2G\	xau-	2e\	Chri-	2b\	Chri-	2gg\	Chri-	1ee	1gg
.	.	.	8ee\ 8ddd	.	.	.	.	.	.	.	.	.	.
.	.	.	8ee\ 8ddd	.	.	.	.	.	.	.	.	.	.
.	.	.	8ee\J 8ddd	.	.	.	.	.	.	.	.	.	.
2E\|	.	8g/L	8ee\L 8ddd	2E\	.	4e\	-ste	2g\	-ste	4gg\	-ste	.	.
.	.	8f#/	8ee\ 8ddd	.	.	.	.	.	.	.	.	.	.
.	.	8g/	8ee\ 8ddd	.	.	4e\	e-	.	.	4gg\	ex	.	.
.	.	8e/J	8ee\J 8ddd	.	.	.	.	.	.	.	.	.	.
=24	=24	=24	=24	=24	=24	=24	=24	=24	=24	=24	=24	=24	=24
!LO:LB:g=original	!	!	!	!	!	!	!	!	!	!	!	!	!
2A\|	.	4c#/	8ee\L 8ccc#	2A\	-di	2c#\	-xau-	2a\	au-	2ee\	au-	1a	1ee
.	.	.	8ee\ 8ccc#	.	.	.	.	.	.	.	.	.	.
.	.	4A/	8ee\ 8ccc#	.	.	.	.	.	.	.	.	.	.
.	.	.	8ee\J 8ccc#	.	.	.	.	.	.	.	.	.	.
2AA/|>	.	4B/	8ee\L 8ccc#	2AA/	nos	2c#\	-di	2a\	-di	2ee\	-di	.	.
.	.	.	8ee\ 8ccc#	.	.	.	.	.	.	.	.	.	.
.	.	4c#/	8ee\ 8ccc#	.	.	.	.	.	.	.	.	.	.
.	.	.	8ee\J 8ccc#	.	.	.	.	.	.	.	.	.	.
*	*	*	*Xtremolo	*	*	*	*	*	*	*	*	*	*
=25	=25	=25	=25	=25	=25	=25	=25	=25	=25	=25	=25	=25	=25
!	!	!	!	!	!	!	!	!LO:LB:g=original	!	!	!	!	!
4D\	.	8d/L	8ddd\L	2D\	Ky-	2d\	nos	2a\	nos	4ff#\	nos	4ff#\	4ff#\
.	.	8d/	8ddd\	.	.	.	.	.	.	.	.	.	.
4r	.	8a/	8aa\	.	.	.	.	.	.	4r	.	4cc#\	4cc#\
.	.	8a/J	8aa\J	.	.	.	.	.	.	.	.	.	.
2r	.	8f#/L	8ff#\L	2r	.	2r	.	2r	.	2r	.	4a\	4a\
.	.	8f#/	8ff#\	.	.	.	.	.	.	.	.	.	.
.	.	8a/	8aa\	.	.	.	.	.	.	.	.	4cc#\	4cc#\
.	.	8a/J	8aa\J	.	.	.	.	.	.	.	.	.	.
=26	=26	=26	=26	=26	=26	=26	=26	=26	=26	=26	=26	=26	=26
4D\	.	8dd\L	8ddd\L	2D\	-ri-	2d\	e-	2a\	e-	4ff#\	ex	4ff#\	4ff#\
.	.	8dd\	8ddd\	.	.	.	.	.	.	.	.	.	.
4r	.	8a\	8aa\	.	.	.	.	.	.	4r	.	4cc#\	4cc#\
.	.	8a\J	8aa\J	.	.	.	.	.	.	.	.	.	.
2r	.	8f#/L	8ff#\L	2r	.	2r	.	2r	.	2r	.	4a\	4a\
.	.	8f#/	8ff#\	.	.	.	.	.	.	.	.	.	.
.	.	8a/	8aa\	.	.	.	.	.	.	.	.	4cc#\	4cc#\
.	.	8a/J	8aa\J	.	.	.	.	.	.	.	.	.	.
=27	=27	=27	=27	=27	=27	=27	=27	=27	=27	=27	=27	=27	=27
!	!	!LO:LB:g=original	!	!	!	!	!	!	!	!	!	!	!
2D\	.	2d/ 2dd	2ff#\ 2ddd	2D\	-e-	2d\	-xau-	2a\	-xau-	2ff#\	au-	2dd\	2dd\
2D\	.	2d/ 2a 2ff#	2dd\ 2ddd	2D\	-lei-	2d\	-di	2a\	-di	2ff#\	-di	2d/	2d/
=28	=28	=28	=28	=28	=28	=28	=28	=28	=28	=28	=28	=28	=28
2D\	.	2d/ 2a 2ff#	2d\ 2dd 2ddd	2D\	-son	2d\	nos	2a\	nos	2ff#\	nos	2d/	2d/
2r	.	2r	2r	2r	.	2r	.	2r	.	2r	.	2r	2r
!	!	!LO:TX:b:t=Finis A&colon; M&colon; D&colon; G&colon;	!LO:TX:b:t=Finis Del Segn A.Rodowski	!	!	!LO:TX:b:t=Finis	!	!	!	!	!	!	!
==	==	==	==	==	==	==	==	==	==	==	==	==	==
*-	*-	*-	*-	*-	*-	*-	*-	*-	*-	*-	*-	*-	*-
!!!system-decoration: [(s1,s2)][(s3,s4,s5,s6)][(s7,s8)]s9
!!!RDF**kern: | = vertical stroke
!!!RDF**kern: > = above
!!!RDF**kern: < = below
!!!ENC: Berenika Jozajtis
!!!END: 2021-11-16
!!!ENC: Krzysztof Stępień
!!!END: 2021-11-25
